rospo-newyear-dark/symbolic/mimetypes/application-rss+xml-symbolic.svg

<svg height="16" width="16" xmlns="http://www.w3.org/2000/svg"><g fill="#d3dae3"><path d="m6 12a2 2 0 0 1 -2 2 2 2 0 0 1 -2-2 2 2 0 0 1 2-2 2 2 0 0 1 2 2z"/><path d="m2 6v2a6 6 0 0 1 6 6h2a8 8 0 0 0 -8-8z"/><path d="m2 2v2.0508a11 11 0 0 1 9.945 9.9492h2.055a12 12 0 0 0 -3.516-8.4844 12 12 0 0 0 -8.484-3.5156z"/></g></svg>

<svg xmlns="http://www.w3.org/2000/svg" width="16" height="16" version="1.1">
 <path style="fill:#d3dae3" d="M 6,12 A 2,2 0 0 1 4,14 2,2 0 0 1 2,12 2,2 0 0 1 4,10 2,2 0 0 1 6,12 Z"/>
 <path style="fill:#d3dae3" d="M 2,6 V 8 A 6,6 0 0 1 8,14 H 10 A 8,8 0 0 0 2,6 Z"/>
 <path style="fill:#d3dae3" d="M 2,2 V 4.0508 A 11,11 0 0 1 11.945,14 H 14 A 12,12 0 0 0 10.484,5.5156 12,12 0 0 0 2,2 Z"/>
</svg>
